packages/icons/src/acr-ci-step.svg

<svg fill="none" viewBox="0 0 41 41" xmlns="http://www.w3.org/2000/svg" xmlns:xlink="http://www.w3.org/1999/xlink"><clipPath id="a"><path d="m.661621.967606h40v40h-40z"/></clipPath><g clip-path="url(#a)"><path d="m12.7736 29.6945h-5.56661c-3.7171-.9248-6.58199-3.8441-6.58199-7.7244 0-3.2093 2.06708-6.1468 4.87755-7.2528-.03626-.3446-.0544-.6709-.0544-1.0155 0-5.51213 4.47866-9.97266 9.99085-9.97266 3.028 0 5.8748 1.37805 7.7788 3.73523 1.1241-.56209 2.3753-.87034 3.6445-.85221 4.3699 0 8.1414 3.88024 8.3045 8.19574l-14.9047-6.14681-7.4885 4.47871z" fill="#59b4d9"/><path d="m40.6249 33.8105-20.5438 3.9166.0906-14.4332 20.4532 3.7896zm-20.4713-23.2817 20.4713 7.7062v7.7062l-20.435-4.3518" fill="#959595"/><path d="m20.1886 21.5894-5.5665 2.593v-10.281l5.5304-3.3726m19.5464 14.5239-18.5675-4.2429v-9.2112l18.5675 6.854zm-10.2084-3.3001 1.8495.5077v-6.0199l-1.8495-.6527zm-1.8676-6.7451-1.8495-.6709v6.4188l1.8495.5259zm5.5846 7.7606 1.8315.4895.0361-5.7298-1.8676-.6165zm-11.1512-2.9557 1.8494.4715v-6.5638l-1.8494-.6165zm16.7178-1.0334-1.8495-.6529v5.603l1.8495.5076zm-17.6427 6.0379v11.9129l18.5675-3.4088v-5.6391zm.9249 10.5167v-9.1749l1.8494.2359v8.6309zm5.5666-.9246-1.8495.3445v-8.1051l1.8495.272c0-.0182 0 7.4886 0 7.4886zm1.8676-.272v-7.0353l1.8495.2357v6.4551zm5.5665-.9792-1.8495.3082v-5.9111l1.8495.272zm3.7716-.5983-1.9221.3263v-4.8594l1.7951.2176z" fill="#b3b4b5"/><path d="m16.5087 21.4079-.9247.544v-7.3072l.9247-.5077zm1.8494-8.3226-.9246.6347v7.1078l.9246-.5077z" fill="#959595"/><path d="m14.6227 34.427-.0363-8.4496 5.5847-2.7017.0364 14.4694" fill="#b3b4b5"/><path d="m16.381 34.3908-.8522-.4352v-7.1259l.8522-.3808zm1.9946-8.8304-.9248.399-.0363 8.9934.961.4897z" fill="#959595"/><path d="m38.7561 19.3773-16.6815-5.6029.018-.7253 16.6635 5.7299zm-.0543 8.8847-16.6092-2.0851v.7252l16.6274 1.9583zm-20.3443-14.2337v-.9066l-2.7018 1.4868-.0362.7615zm-2.8106 13.3452 2.8287-1.0334v-.7797l-2.8468 1.2692z" fill="#7a7a7a"/><path d="m40.6248 18.2711v15.5394l-20.4168 3.9166 15.4667-21.3235z" fill="#fff" opacity=".2"/></g></svg>

<svg viewBox="0 0 41 41" fill="none" xmlns="http://www.w3.org/2000/svg">
<g clip-path="url(#clip0_2952_318961)">
<path d="M12.7736 29.6945H7.20699C3.48989 28.7697 0.625 25.8504 0.625 21.9701C0.625 18.7608 2.69208 15.8233 5.50255 14.7173C5.46629 14.3727 5.44815 14.0464 5.44815 13.7018C5.44815 8.18967 9.92681 3.72914 15.439 3.72914C18.467 3.72914 21.3138 5.10719 23.2178 7.46437C24.3419 6.90228 25.5931 6.59403 26.8623 6.61216C31.2322 6.61216 35.0037 10.4924 35.1668 14.8079L20.2621 8.66109L12.7736 13.1398V29.6945Z" fill="#59B4D9"/>
<path d="M40.6249 33.8105L20.0811 37.7271L20.1717 23.2939L40.6249 27.0835V33.8105ZM20.1536 10.5288L40.6249 18.235V25.9412L20.1899 21.5894" fill="#959595"/>
<path d="M20.1886 21.5894L14.6221 24.1824V13.9014L20.1525 10.5288M39.6989 25.0527L21.1314 20.8098V11.5986L39.6989 18.4526V25.0527ZM29.4905 21.7526L31.34 22.2603V16.2404L29.4905 15.5877V21.7526ZM27.6229 15.0075L25.7734 14.3366V20.7554L27.6229 21.2813V15.0075ZM33.2075 22.7681L35.039 23.2576L35.0751 17.5278L33.2075 16.9113V22.7681ZM22.0563 19.8124L23.9057 20.2839V13.7201L22.0563 13.1036V19.8124ZM38.7741 18.779L36.9246 18.1261V23.7291L38.7741 24.2367V18.779ZM21.1314 24.8169V36.7298L39.6989 33.321V27.6819L21.1314 24.8169ZM22.0563 35.3336V26.1587L23.9057 26.3946V35.0255L22.0563 35.3336ZM27.6229 34.409L25.7734 34.7535V26.6484L27.6229 26.9204C27.6229 26.9022 27.6229 34.409 27.6229 34.409ZM29.4905 34.137V27.1017L31.34 27.3374V33.7925L29.4905 34.137ZM35.057 33.1578L33.2075 33.466V27.5549L35.057 27.8269V33.1578ZM38.8286 32.5595L36.9065 32.8858V28.0264L38.7016 28.244L38.8286 32.5595Z" fill="#B3B4B5"/>
<path d="M16.5087 21.4079L15.584 21.9519V14.6447L16.5087 14.137V21.4079ZM18.3581 13.0853L17.4335 13.72V20.8278L18.3581 20.3201V13.0853Z" fill="#959595"/>
<path d="M14.6227 34.427L14.5864 25.9774L20.1711 23.2757L20.2075 37.7451" fill="#B3B4B5"/>
<path d="M16.381 34.3908L15.5288 33.9556V26.8297L16.381 26.4489V34.3908ZM18.3756 25.5604L17.4508 25.9594L17.4145 34.9528L18.3755 35.4425L18.3756 25.5604Z" fill="#959595"/>
<path d="M38.7561 19.3773L22.0746 13.7744L22.0926 13.0491L38.7561 18.779V19.3773ZM38.7018 28.262L22.0926 26.1769V26.9021L38.72 28.8604L38.7018 28.262ZM18.3575 14.0283V13.1217L15.6557 14.6085L15.6195 15.37L18.3575 14.0283ZM15.5469 27.3735L18.3756 26.3401V25.5604L15.5288 26.8296L15.5469 27.3735Z" fill="#7A7A7A"/>
<path opacity="0.2" d="M40.6248 18.2711V33.8105L20.208 37.7271L35.6747 16.4036L40.6248 18.2711Z" fill="white"/>
</g>
<defs>
<clipPath id="clip0_2952_318961">
<rect width="40" height="40" fill="white" transform="translate(0.661621 0.967606)"/>
</clipPath>
</defs>
</svg>
